X: 6
T: The Fox On The Town
R: reel
M: 4/4
L: 1/8
K: Gmaj
|:g2fg edBA|G2BG DG (3Bcd|gedg e3f|g2fd efga|
be e2 edBA|G2BG DG (3Bcd|efgb agfa|g3f g3a:||
|:be e2 bage|dB B2 dega|be e2 bage|dgge a3b|
g3d egdB|G2(3Bcd ed (3Bcd|efgb agfa|g3f g3a:||


Tune 341	Setting 341

